X: 34696
T: Road To Errogie, The
R: reel
M: 4/4
K: Gmajor
DG GG AG AB|dG GG AG Bd|e2 eg dB GB|A2 AB AG ED|
DG GG AG AB|dG GG AB dB|e2 eg dB GB|1 AG ED G3 E|2 AG ED G3 e:|
dg gg ag gg|b3a g2 d(e|e2) d(g g)d (e2|e)d gd ed Bd|
dg gg ag gg|b3a g2 d(e|e2) d(g g)d (e2|e)d gd ed BG|
DG GG AG AB|dG GG AG Bd|e2 eg dB GB|AG ED G3 E||

